X: 32
T: Missa Cum iocunditate / Gloria
N: Derived from Rue1007b-Missa_Cum_iocunditate-Gloria.krn
C: Pierre de la Rue
%%abc-version 2.0
%%abcx-abcm2ps-target-version 5.9.1 (29 Sep 2008)
%%abc-creator hum2abc beta
%%abcx-conversion-date 2019/02/17 08:01:10
%%abc-edited-by Jesse Rodin
%%abc-edited-by Jesse Rodin; Victoria Chang 2011/04/03
%%abcx-initial-encoding-date 2011/04/03/
%%humdrum-veritas 4193402196
%%humdrum-veritas-data 33695204
%%linebreak <none>
%%barnumbers 0
L: 1/4
M: 3/1
Q: 1/2=120
%%staves [1 2 3 4]
V: 1 clef=treble
V: 2 clef=treble-8
V: 3 clef=treble-8
V: 4 clef=bass
K: C
[V:1] G8G2E2 | 
[V:2] d6B2d2e2- | 
[V:3] G12 | 
[V:4] G,,4G,,3A,,B,,2C,2- | 
[V:1] G2A3GG4^F2 | 
[V:2] edd4c2d4 | 
[V:3] E4G4A4 | 
[V:4] C,B,,C,D,E,4D,4 | 
[V:1] G8z2B2- | 
[V:2] z2d4B2d2e2- | 
[V:3] G8G4 | 
[V:4] G,,4z2G,4E,2 | 
[V:1] B2G2B2c3BB2 | 
[V:2] edd4cBc2d2 | 
[V:3] z12 | 
[V:4] G,4G,2A,3G,G,2 | 
[V:1] z2B4B4G2 | 
[V:2] z2g4g2g2g2- | 
[V:3] d4B2d2e4 | 
[V:4] z2G,4G,4E,2 | 
[V:1] B2c4B4G2 | 
[V:2] gfedc2g2z2G2 | 
[V:3] e8d4 | 
[V:4] G,2A,4G,4G,2 | 
[V:1] A2B3EG2A2B2 | 
[V:2] c2B2G3BA2G2 | 
[V:3] z2d2B4d4 | 
[V:4] F,2G,6F,2G,2 | 
[V:1] c3B/A/G4z2G2 | 
[V:2] z2G2c4B4 | 
[V:3] e8d4 | 
[V:4] C,8z2G,2 | 
[V:1] A2B3EG2A2B2 | 
[V:2] A2G2d3cA2G2 | 
[V:3] z2d2B2B2d4 | 
[V:4] F,2G,4G,2F,2G,2 | 
[V:1] c2c3cccB4- | 
[V:2] c3BG4z4 | 
[V:3] e12 | 
[V:4] C,8z2G,2- | 
[V:1] B4z4z2A2- | 
[V:2] z4z2f3fff | 
[V:3] d12- | 
[V:4] G,G,G,G,D,8 | 
[V:1] A2A2A2d3cBG | 
[V:2] d4z2f4f2 | 
[V:3] d12 | 
[V:4] z4z2D,4D,2 | 
[V:1] A2G2z4z2E2- | 
[V:2] d2e3dc2B2c2 | 
[V:3] z12 | 
[V:4] D,2G,3F,E,C,D,2C,2 | 
[V:1] E2E2E6C2 | 
[V:2] z2c4c2c2c2 | 
[V:3] G4G2G4E2 | 
[V:4] z2C,4C,2C,2C,2 | 
[V:1] E2F4E2E4- | 
[V:2] c2c4c2c4 | 
[V:3] G2A4G2G4 | 
[V:4] C,2F,4C,2C,2C,2- | 
[V:1] E4z2c3BAG | 
[V:2] z2c2c3BAGc2- | 
[V:3] z12 | 
[V:4] C,B,,A,,G,,C,8- | 
[V:1] c3BAGd3cBA | 
[V:2] cBAGd3cBAd2- | 
[V:3] z12 | 
[V:4] C,4z2G,,2D,3C, | 
[V:1] d4d2G2c3c | 
[V:2] d2d2G2g3fec | 
[V:3] G8E4 | 
[V:4] B,,A,,G,,4C,4C,2 | 
[V:1] B2G4^FEF4 | 
[V:2] d8d4 | 
[V:3] G4A8 | 
[V:4] G,,4D,8 | 
[V:1] G8z4 | 
[V:2] B6AGd4 | 
[V:3] G12 | 
[V:4] G,,4z2G,3A,B,2 | 
[V:1] G3AB2c3BG2 | 
[V:2] z4z2c3de2 | 
[V:3] z12 | 
[V:4] C3B,G,2A,3B,C2 | 
[V:1] A3GE2F3EC2 | 
[V:2] f3ec2d3cA2 | 
[V:3] z12 | 
[V:4] F,3G,A,2D,3E,F,2 | 
[V:1] D3CA,2B,4A,2 | 
[V:2] _B3AF2G4^F2 | 
[V:3] z12 | 
[V:4] _B,,3C,D,2G,,2D,4 | 
[V:1] B,6G,2G,4 | 
[V:2] G4G2B4G2 | 
[V:3] d12 | 
[V:4] G,,12 | 
[V:1] z4z4z2G2 | 
[V:2] G4z4z4 | 
[V:3] B4d4e4 | 
[V:4] z2G,2G,2F,2E,2G,2- | 
[V:1] G2F2E2G3FD2 | 
[V:2] z4z2g2g2f2 | 
[V:3] d4z4z4 | 
[V:4] G,F,D,2C,4z4 | 
[V:1] C4z4z2c2 | 
[V:2] e2g3fd2c4 | 
[V:3] z12 | 
[V:4] z2C2C2B,2A,2C2- | 
[V:1] c2B2A2c3BG2 | 
[V:2] z4z2c2c2B2 | 
[V:3] z12 | 
[V:4] CB,G,2F,4z4 | 
[V:1] F8z2d2 | 
[V:2] A2d3cBAG2A2 | 
[V:3] d8d4 | 
[V:4] z2D,2D,3C,B,,2D,2- | 
[V:1] d3cB2d3cBA | 
[V:2] F2G2z2g2g3f | 
[V:3] B4d8 | 
[V:4] D,C,B,,A,,G,,8 | 
[V:1] G4c4c2B2- | 
[V:2] e2g3fedc2g2- | 
[V:3] e12 | 
[V:4] z2G,2A,6G,2- | 
[V:1] B4A4G2c2- | 
[V:2] gfdef2F2c4 | 
[V:3] d8z4 | 
[V:4] G,4F,4E,2A,2- | 
[V:1] c2B4AGA2B2 | 
[V:2] A2B2G2d3cBA | 
[V:3] z2d4B2d4 | 
[V:4] A,2G,4G,2F,2G,2 | 
[V:1] G2c3BAGA4 | 
[V:2] B2c2A8 | 
[V:3] e8d4 | 
[V:4] E,2A,3G,F,E,F,4 | 
[V:1] G8z2G2- | 
[V:2] B2c4BAB4 | 
[V:3] z4z4G4 | 
[V:4] E,12 | 
[V:1] G2G2G2B3cd2 | 
[V:2] z2B3cd2G3A | 
[V:3] G12- | 
[V:4] z4z2G,3A,B,2 | 
[V:1] G3AB2E3FG2 | 
[V:2] B2E3FG2C2c2- | 
[V:3] G4E4G4 | 
[V:4] E,3F,G,2C,3D,E,2 | 
[V:1] C4c8 | 
[V:2] cde2A4c4 | 
[V:3] A12 | 
[V:4] A,,2C,3B,,A,,G,,F,,4 | 
[V:1] B6G2_B2A2 | 
[V:2] z2g2g3fdef2- | 
[V:3] G8z4 | 
[V:4] G,,4z2G,4F,2 | 
[V:1] F2A2G2E2G2F2 | 
[V:2] fecde3dBcd2- | 
[V:3] z4z4z2d2- | 
[V:4] D,2F,2E,2C,2E,2D,2- | 
[V:1] D2E3DD4^C2 | 
[V:2] d2G2z4z4 | 
[V:3] d2B2d4e4 | 
[V:4] D,2G,3F,D,2A,4 | 
[V:1] D4z2A3B/c/d2- | 
[V:2] z2A4A2d3c | 
[V:3] d4d6B2 | 
[V:4] D,8z2D,2- | 
[V:1] dcBAG4z2c2 | 
[V:2] BAG4c4c2 | 
[V:3] d4e8 | 
[V:4] D,E,/F,/G,3F,E,D,C,4 | 
[V:1] B2A4G2c4 | 
[V:2] G2d2cAB2A4 | 
[V:3] d4z4z4 | 
[V:4] G,2F,D,E,4A,,2A,2 | 
[V:1] B2A3GG2z2c2 | 
[V:2] z2A2F2G2A3G | 
[V:3] d6B2d2e2- | 
[V:4] G,2F,3D,E,2D,2A,2 | 
[V:1] B2BA2GG4^F2 | 
[V:2] E2F2G4A4 | 
[V:3] e2d4B2d4 | 
[V:4] G,2F,D,E,4D,4 | 
[V:1] G12 ||  
[V:2] G12 ||  
[V:3] e3dd8 ||  
[V:4] G,,12 ||  
[V:1] [M:2/1]z8 | 
[V:2] [M:2/1]G8 | 
[V:3] [M:2/1]d4B2d2 | 
[V:4] [M:2/1]z8 | 
[V:1] G8 | 
[V:2] c4c4 | 
[V:3] e4e4 | 
[V:4] z8 | 
[V:1] c4c4 | 
[V:2] A4A4 | 
[V:3] e8 | 
[V:4] z8 | 
[V:1] A4A4 | 
[V:2] d4d4 | 
[V:3] d4d4 | 
[V:4] z8 | 
[V:1] d4d4 | 
[V:2] G4z2A2 | 
[V:3] z4d4 | 
[V:4] z4D,4 | 
[V:1] G8 | 
[V:2] B2d3cBA | 
[V:3] B4d4 | 
[V:4] G,4G,4 | 
[V:1] z4G4 | 
[V:2] G8 | 
[V:3] e8 | 
[V:4] E,4E,4 | 
[V:1] A2c3BAG | 
[V:2] z8 | 
[V:3] e6d2 | 
[V:4] A,4A,4 | 
[V:1] F3ED2d2 | 
[V:2] z2d2d2d2 | 
[V:3] d4z2d2- | 
[V:4] D,8 | 
[V:1] d2d2B3A | 
[V:2] B3AG4- | 
[V:3] d2B2d4 | 
[V:4] z2G,2G,2G,2 | 
[V:1] G4z2G2 | 
[V:2] G8 | 
[V:3] e4e4 | 
[V:4] E,3D,C,4 | 
[V:1] c2c2A2A2 | 
[V:2] z4z2d2 | 
[V:3] e4d4 | 
[V:4] z2C,2F,2F,2 | 
[V:1] d2d2G4 | 
[V:2] f2f2d2d2 | 
[V:3] d8 | 
[V:4] D,2D,2G,2G,2 | 
[V:1] z4c4 | 
[V:2] g2g2c4 | 
[V:3] z8 | 
[V:4] C,8 | 
[V:1] B2A4G2 | 
[V:2] g4f2e2- | 
[V:3] z8 | 
[V:4] z8 | 
[V:1] F4E2c2 | 
[V:2] e2d2c2e2 | 
[V:3] z8 | 
[V:4] z4A,4 | 
[V:1] B2A4G2 | 
[V:2] z2A2F2G2 | 
[V:3] d4d2B2 | 
[V:4] G,2F,4E,2 | 
[V:1] F2E2z2c2 | 
[V:2] A4c3B | 
[V:3] d2e4e2 | 
[V:4] D,2C,2A,3E, | 
[V:1] B2A4G2 | 
[V:2] G2A2B4 | 
[V:3] d4d4 | 
[V:4] G,2F,2G,3F, | 
[V:1] F2D2E4 | 
[V:2] A2d4^c2 | 
[V:3] z8 | 
[V:4] D,2F,2G,2A,2 | 
[V:1] D8 | 
[V:2] d3cB2A2- | 
[V:3] d8- | 
[V:4] D,8- | 
[V:1] z4A4 | 
[V:2] A2G4^F2 | 
[V:3] d8 | 
[V:4] D,8 | 
[V:1] B6G2 | 
[V:2] G8 | 
[V:3] B4d4 | 
[V:4] G,,4z2G,,2 | 
[V:1] G4z4 | 
[V:2] z4z2d2 | 
[V:3] e4d4 | 
[V:4] C,2C,2B,,4 | 
[V:1] z2A2c2c2 | 
[V:2] f2f2e4 | 
[V:3] d4z4 | 
[V:4] D,4A,,4 | 
[V:1] B4d4 | 
[V:2] g4d4 | 
[V:3] z8 | 
[V:4] z8 | 
[V:1] A8 | 
[V:2] z8 | 
[V:3] z8 | 
[V:4] z2A,,2C,2C,2 | 
[V:1] z4z2A2 | 
[V:2] z2d2f2f2 | 
[V:3] d4B2d2 | 
[V:4] B,,4D,4 | 
[V:1] c2c2B4 | 
[V:2] e4g4 | 
[V:3] e4e4 | 
[V:4] A,,4z4 | 
[V:1] d4A4 | 
[V:2] f8 | 
[V:3] d8 | 
[V:4] z8 | 
[V:1] z2A2A2A2 | 
[V:2] z2f2f2f2 | 
[V:3] z4d4 | 
[V:4] z2D,2D,2D,2 | 
[V:1] (3:2:4B4G2A2B4 | 
[V:2] (3:2:4g4e2f2d4 | 
[V:3] d2B2d4 | 
[V:4] (3:2:4G,4G,2F,2G,4 | 
[V:1] c4z2G2 | 
[V:2] c4z4 | 
[V:3] e4e4 | 
[V:4] C,4z2C,2 | 
[V:1] B3GA2B2 | 
[V:2] z4z2d2 | 
[V:3] d4d4 | 
[V:4] G,3E,F,2G,2 | 
[V:1] c2BAG4 | 
[V:2] e3ee2g2- | 
[V:3] z4z2d2- | 
[V:4] C,4z2G,2- | 
[V:1] z4z2B2 | 
[V:2] g2d2z2g2 | 
[V:3] d2B2d4 | 
[V:4] G,2G,2G,4 | 
[V:1] (3:2:5c4c2c2c2c2 | 
[V:2] (3:2:5g4g2g2g2g2 | 
[V:3] e4e4 | 
[V:4] (3C,4C,4C,4 | 
[V:1] B2B2A2B2- | 
[V:2] g4f2d2- | 
[V:3] d8 | 
[V:4] G,4z2G,2 | 
[V:1] BAG4^F2 | 
[V:2] dcB2A4 | 
[V:3] z8 | 
[V:4] G,2G,2D,4 | 
[V:1] G8 | 
[V:2] G4z2d2 | 
[V:3] d4B4 | 
[V:4] z2G,2G,2G,2 | 
[V:1] z8 | 
[V:2] d2A2c2c2 | 
[V:3] d4e4 | 
[V:4] D,2F,2C,4 | 
[V:1] z8 | 
[V:2] G4z2d2 | 
[V:3] e4d4 | 
[V:4] z2G,2G,2G,2 | 
[V:1] z8 | 
[V:2] d2A2c2c2 | 
[V:3] d4z4 | 
[V:4] D,2F,2C,4 | 
[V:1] z2G2G2D2 | 
[V:2] G2G2G4 | 
[V:3] z2d4B2 | 
[V:4] C,4G,,4 | 
[V:1] F2F2C2G2 | 
[V:2] z8 | 
[V:3] d4e4 | 
[V:4] z8 | 
[V:1] G2E2F2D2 | 
[V:2] z8 | 
[V:3] e4d2B2 | 
[V:4] z8 | 
[V:1] F3EC4 | 
[V:2] z8 | 
[V:3] d4e4 | 
[V:4] z8 | 
[V:1] z2c4B2- | 
[V:2] z8 | 
[V:3] e4d4 | 
[V:4] C,4G,4 | 
[V:1] B2AGA2B2 | 
[V:2] B3cA2G2 | 
[V:3] d4z2d2- | 
[V:4] G,2F,E,F,2G,2- | 
[V:1] G2B2A2G2- | 
[V:2] B3GA2B2 | 
[V:3] d2B2d2e2- | 
[V:4] G,2G,2F,2E,2- | 
[V:1] G2B2A2G2- | 
[V:2] G4z2B2- | 
[V:3] e2d2d4 | 
[V:4] E,2G,2D,2G,2- | 
[V:1] GBA2G2F2 | 
[V:2] Bcd2G2A2 | 
[V:3] z2d2B2d2 | 
[V:4] G,F,D,2E,2D,2 | 
[V:1] E4z2G2 | 
[V:2] c2c3def | 
[V:3] e8- | 
[V:4] z2C,2C,3D, | 
[V:1] G3ABcd2- | 
[V:2] g3fd3e | 
[V:3] e4d4 | 
[V:4] E,F,G,3F,D,2- | 
[V:1] dcA3BcB | 
[V:2] f3ecdef | 
[V:3] d4z4 | 
[V:4] D,E,F,3E,C,D, | 
[V:1] AGG4^F2 | 
[V:2] g2G2A4 | 
[V:3] z2d4d2 | 
[V:4] E,F,G,2D,4 | 
[V:1] G8- | 
[V:2] G8- | 
[V:3] B2d2e3d | 
[V:4] G,,8- | 
[V:1] G8 |]  
[V:2] G8 |]  
[V:3] d8 |]  
[V:4] G,,8 |]  



